X:1
T:Abendlied
T:Friedrich Silcher
T:Agnes Franz
T:Abendlied
T:CPDL   —   Creative Commons Attribution Non Commercial 3.0
C:Friedrich Silcher
Z:Agnes Franz
Z:CPDL   —   Creative Commons Attribution Non Commercial 3.0
%%score [ ( 1 2 ) ( 3 4 ) ]
L:1/8
Q:1/4=80
M:4/4
K:G
V:1 treble-8 nm="Tenor"
V:2 treble-8 
V:3 bass nm="Bass"
V:4 bass 
V:1
"^Mäßig langsam""^dolce" d2 | e2 d2 c2 B2 | B4 A2 B2 | c4 d4 | B4 z2 | d2 | e2 d2 c2 B2 | %7
w: 1. Wie|könnt' ich ru- hig|schla- fen in|dunk- ler|Nacht,|wenn|ich, o Gott und|
w: 2.  O|de- cke mei- ne|Män- gel mit|dei- ner|Huld,|du|bist ja, Gott, die|
w: 3. Auch|hilf, dass ich ver-|ge- be, wie|du ver-|gibst,|und|mei- nen Bru- der|
 B4 A2 B2 | c4 d4 | B4 z2 | B2 |!<(! A2 d2 ^c2!<)! e2 | (d3 e) f2 g2 |!>(! f4 e4!>)! | d4 z2 | %15
w: Va- ter, nicht|dein ge-|dacht?|Es|hat des Ta- ges|Trei- * ben mein|Herz zer-|streut;|
w: Lie- be und|die Ge-|duld!|Gib|mir, um was ich|fle- * he: Ein|rei- nes|Herz,|
w: lie- be, wie|Du mich|liebst!|So|schlaf ich oh- ne|Ban- * gen in|Frie- den|ein|
"^dolce" d2 | g2 fe d2 d2 | e4 d2 c2 | (B2 c4) A2 | G4 z2 |] %20
w: bei|dir, bei * dir ist|Frie- den und|Se- * lig-|keit.|
w: das|dir voll * Freu- den|die- ne in|Glück _ und|Schmerz.|
w: und|träu- me * süß und|stil- le und|den- * ke|dein.|
V:2
 B2 | c2 B2 A2 G2 | G4 F2 G2 | G4 A4 | G4 x2 | B2 | c2 B2 A2 G2 | G4 F2 G2 | G4 A4 | G4 x2 | G2 | %11
 F2 A2 A2 ^c2 | (d3 ^c) d2 d2 | d4 ^c4 | d4 x2 | =c2 | B2 c2 B2 B2 | c4 B2 A2 | (G2 A4) F2 | %19
 G4 x2 |] %20
V:3
"^dolce" G,2 | G,2 G,2 D,2 D,2 | D,4 D,2 G,2 |!<(! G,6!<)! F,2 | D,4 z2 | G,2 | G,2 G,2 D,2 D,2 | %7
 D,4 D,2 G,2 | G,6 F,2 | D,4 z2 | D,2 |"^poco cres." D,2 F,2 G,2 A,2 | A,4 A,2 G,2 | %13
"^dim." A,4 G,4 | F,4 z2 |"^dolce" F,2 | D,2 E,F, G,2 G,2 | G,4 G,2 E,2 | D,6 C,2 | B,,4 z2 |] %20
V:4
 G,2 | G,2 G,2 G,,2 G,,2 | D,4 D,2 G,2 | E,4 D,4 | G,,4 x2 | G,2 | G,2 G,2 G,,2 G,,2 | %7
 D,4 D,2 G,2 | E,4 D,4 | G,,4 x2 | G,,2 | D,2 D,2 E,2 G,2 | (F,3 E,) D,2 B,,2 | A,,4 A,,4 | %14
 D,4 x2 | D,2 | G,,2 G,,2 G,,2 G,2 | (C,2 E,2) G,2 C,2 | D,4 D,4 | G,,4 x2 |] %20

